X: 5
T: Missa Da pacem / Agnus Dei
N: Derived from Mou1020e-Missa_Da_pacem-Agnus.krn
%%abc-version 2.0
%%abcx-abcm2ps-target-version 5.9.1 (29 Sep 2008)
%%abc-creator hum2abc beta
%%abcx-conversion-date 2019/02/17 07:22:03
%%abc-edited-by Jesse Rodin
%%abc-edited-by Victoria Chang 2011/04/27
%%abcx-initial-encoding-date 2011/04/27/
%%humdrum-veritas 3494253578
%%humdrum-veritas-data 2939026500
%%linebreak <none>
%%barnumbers 0
L: 1/4
M: 3/1
Q: 1/2=120
V: 1 clef=treble
V: 2 clef=treble
V: 3 clef=treble-8
V: 4 clef=treble-8
V: 5 clef=bass
V: 6 clef=bass
K: F
[V:1] z12 | 
[V:2] z12 | 
[V:3] G8F4 | 
[V:4] z12 | 
[V:5] z12 | 
[V:6] z12 | 
[V:1] G8F4 | 
[V:2] z12 | 
[V:3] G3AB2G2A4 | 
[V:4] z12 | 
[V:5] z12 | 
[V:6] z12 | 
[V:1] G3AB2G2A4 | 
[V:2] z12 | 
[V:3] GABcd2e2f2d2- | 
[V:4] G8F4 | 
[V:5] z12 | 
[V:6] z12 | 
[V:1] G4z4c4 | 
[V:2] z12 | 
[V:3] d2e2d2g4^f2 | 
[V:4] G3AB2G2A4 | 
[V:5] z12 | 
[V:6] z12 | 
[V:1] B4A2B4AG | 
[V:2] z12 | 
[V:3] g4d4d4- | 
[V:4] G4F2G4FE | 
[V:5] z12 | 
[V:6] z12 | 
[V:1] F6EDE4 | 
[V:2] z12 | 
[V:3] d2cBA2B2c4 | 
[V:4] D4F4G4 | 
[V:5] D,8C,4 | 
[V:6] z12 | 
[V:1] D8z2G2- | 
[V:2] z12 | 
[V:3] A4z2d4c2 | 
[V:4] F3GA2B4G2 | 
[V:5] D,3E,F,2D,2_E,4 | 
[V:6] z12 | 
[V:1] G2F2G2B4A2 | 
[V:2] z12 | 
[V:3] d4d2g3ff2- | 
[V:4] A4B4c4 | 
[V:5] D,4z4F,4 | 
[V:6] z12 | 
[V:1] B4c4B4- | 
[V:2] z12 | 
[V:3] feedf4g4- | 
[V:4] B4A4B4 | 
[V:5] G,4F,4z4 | 
[V:6] z12 | 
[V:1] B2AGA4B4 | 
[V:2] z12 | 
[V:3] g4f4d2_e2- | 
[V:4] c8B2G2 | 
[V:5] _E,4F,4G,4 | 
[V:6] z12 | 
[V:1] A2F2G4F2c2 | 
[V:2] z12 | 
[V:3] edd4c2d2_e2- | 
[V:4] A4G3AB2c2 | 
[V:5] F,2D,2_E,4D,2C,2 | 
[V:6] z12 | 
[V:1] B2A3GG4^F2 | 
[V:2] z12 | 
[V:3] edd4c2d4 | 
[V:4] F4G4A4 | 
[V:5] D,4_E,4D,4 | 
[V:6] z12 | 
[V:1] G8z4 | 
[V:2] z12 | 
[V:3] z4d4c2d2- | 
[V:4] G8z4 | 
[V:5] z4z4F,4 | 
[V:6] z12 | 
[V:1] z12 | 
[V:2] z12 | 
[V:3] d2cBA2c3BAG | 
[V:4] z12 | 
[V:5] F,2F,4E,D,E,4 | 
[V:6] z12 | 
[V:1] z4G4F2G2- | 
[V:2] z12 | 
[V:3] F4z4z4 | 
[V:4] z4B4B4 | 
[V:5] D,4z4z4 | 
[V:6] z12 | 
[V:1] G2FED2F3EDC | 
[V:2] z12 | 
[V:3] z12 | 
[V:4] B6AGA4 | 
[V:5] z12 | 
[V:6] z12 | 
[V:1] B,2D4E2F2G2 | 
[V:2] z12 | 
[V:3] d6cBA2e2- | 
[V:4] G2B4AGF2E2 | 
[V:5] z2B,,2B,,3C,D,2C,2 | 
[V:6] z12 | 
[V:1] F2B4AGF4 | 
[V:2] z12 | 
[V:3] edd4c2d4 | 
[V:4] F4G4A4 | 
[V:5] D,4_E,4D,4 | 
[V:6] z12 | 
[V:1] G3FD3EFGA2 | 
[V:2] z12 | 
[V:3] d6cBA4- | 
[V:4] z2B2B3cd2c2 | 
[V:5] z4G,4F,3E, | 
[V:6] z12 | 
[V:1] F2A2GFEDE4 | 
[V:2] z12 | 
[V:3] A4z4A4 | 
[V:4] d2e3dd4^c2 | 
[V:5] D,2C,2B,,4A,,4 | 
[V:6] z12 | 
[V:1] DEFGAFB4A2 | 
[V:2] z12 | 
[V:3] F2A4GFG2E2 | 
[V:4] d8z4 | 
[V:5] D,4D,4C,4 | 
[V:6] z12 | 
[V:1] BAGF_E2D2E4 | 
[V:2] z12 | 
[V:3] DEFGAFB4A2 | 
[V:4] z12 | 
[V:5] B,,4C,8 | 
[V:6] z12 | 
[V:1] DEFGAFB4A2 | 
[V:2] z12 | 
[V:3] Bcdef4g2f2 | 
[V:4] d4d4c4 | 
[V:5] B,,4z2D,2_E,2F,2 | 
[V:6] z12 | 
[V:1] B2d2c2B4A2 | 
[V:2] z12 | 
[V:3] d4g4f4- | 
[V:4] B4c8 | 
[V:5] G,4_E,4F,4 | 
[V:6] z12 | 
[V:1] B6G2A2F2 | 
[V:2] z12 | 
[V:3] f2_e2d2_e2c2d2 | 
[V:4] B4z4z4 | 
[V:5] B,,4z4F,2F,2 | 
[V:6] z12 | 
[V:1] G2A2D4A4 | 
[V:2] z12 | 
[V:3] G2c2Bcdef4 | 
[V:4] z4B2B2A3B | 
[V:5] _E,2F,2G,4F,2D,2 | 
[V:6] z12 | 
[V:1] G2_E2F2G2C2F2 | 
[V:2] z12 | 
[V:3] _e2c2d2B2c2d2 | 
[V:4] c4B2G2A4 | 
[V:5] _E,4z4F,2F,2 | 
[V:6] z12 | 
[V:1] G2A2D3EFGA2- | 
[V:2] z12 | 
[V:3] G2c2B2G2c4 | 
[V:4] z4B2B2A3B | 
[V:5] _E,2F,2G,4F,2E,D, | 
[V:6] z12 | 
[V:1] AGG4^FEF4 | 
[V:2] z12 | 
[V:3] c4d8- | 
[V:4] c4B2AGA4 | 
[V:5] _E,4D,8 | 
[V:6] z12 | 
[V:1] G12 ||  
[V:2] z12 ||  
[V:3] d12 ||  
[V:4] G12 ||  
[V:5] G,,12 ||  
[V:6] z12 ||  
[V:1]  [K:F] [K:clef=treble][M:2/1]z8 | 
[V:2]  [K:F] [K:clef=treble][M:2/1]z8 | 
[V:3]  [K:F] [K:clef=treble-8][M:2/1]d8 | 
[V:4]  [K:F] [K:clef=treble-8][M:2/1]z8 | 
[V:5]  [K:F] [K:clef=bass][M:2/1]z8 | 
[V:6]  [K:F] [K:clef=bass][M:2/1]z8 | 
[V:1] G8 | 
[V:2] z8 | 
[V:3] c8 | 
[V:4] z8 | 
[V:5] z8 | 
[V:6] z8 | 
[V:1] F8 | 
[V:2] z8 | 
[V:3] d8 | 
[V:4] z8 | 
[V:5] D,8 | 
[V:6] z8 | 
[V:1] G8 | 
[V:2] z8 | 
[V:3] e8 | 
[V:4] G8 | 
[V:5] C,8 | 
[V:6] z8 | 
[V:1] z8 | 
[V:2] z8 | 
[V:3] d4f4 | 
[V:4] F8 | 
[V:5] D,8 | 
[V:6] z8 | 
[V:1] B8 | 
[V:2] z8 | 
[V:3] e2dcd4 | 
[V:4] G8 | 
[V:5] z8 | 
[V:6] z8 | 
[V:1] c8 | 
[V:2] z8 | 
[V:3] c2f4ed | 
[V:4] z8 | 
[V:5] F,8 | 
[V:6] z8 | 
[V:1] B6AG | 
[V:2] z8 | 
[V:3] e2f4e2 | 
[V:4] B8 | 
[V:5] G,8 | 
[V:6] z8 | 
[V:1] A2B4A2 | 
[V:2] z8 | 
[V:3] f8 | 
[V:4] c8 | 
[V:5] F,8 | 
[V:6] z8 | 
[V:1] B8 | 
[V:2] z8 | 
[V:3] d6cB | 
[V:4] B8 | 
[V:5] z8 | 
[V:6] z8 | 
[V:1] z4z2G2 | 
[V:2] z8 | 
[V:3] c2G4c2- | 
[V:4] z8 | 
[V:5] E,8 | 
[V:6] z8 | 
[V:1] A2B2c4 | 
[V:2] z8 | 
[V:3] c2d2c2f2 | 
[V:4] A8 | 
[V:5] F,8 | 
[V:6] z8 | 
[V:1] B2G2B4 | 
[V:2] z8 | 
[V:3] d3Bd2e2 | 
[V:4] B8 | 
[V:5] G,8 | 
[V:6] z8 | 
[V:1] z2A3GG2- | 
[V:2] z8 | 
[V:3] f2F2GABc | 
[V:4] c8 | 
[V:5] F,4E,4 | 
[V:6] z8 | 
[V:1] G2^FEF4 | 
[V:2] z8 | 
[V:3] d8 | 
[V:4] B4A4 | 
[V:5] D,4D,4 | 
[V:6] z8 | 
[V:1] G4z2G2 | 
[V:2] z8 | 
[V:3] d4e4 | 
[V:4] G4G4 | 
[V:5] z8 | 
[V:6] z8 | 
[V:1] A2B2c2A2 | 
[V:2] z8 | 
[V:3] d4c4 | 
[V:4] z8 | 
[V:5] F,4F,4 | 
[V:6] z8 | 
[V:1] B2AGF2G2 | 
[V:2] z8 | 
[V:3] G4z2d2 | 
[V:4] B4B4 | 
[V:5] _E,4D,4 | 
[V:6] z8 | 
[V:1] A4B2G2 | 
[V:2] z8 | 
[V:3] e2f2g2e2 | 
[V:4] A4G4 | 
[V:5] z8 | 
[V:6] z8 | 
[V:1] A4z2A2 | 
[V:2] z8 | 
[V:3] f2edc2d2- | 
[V:4] z8 | 
[V:5] F,8 | 
[V:6] z8 | 
[V:1] B2c2d4- | 
[V:2] z8 | 
[V:3] d2e2d2g2- | 
[V:4] B8 | 
[V:5] G,8 | 
[V:6] z8 | 
[V:1] d2c2c4- | 
[V:2] z8 | 
[V:3] g2e2f4 | 
[V:4] c8 | 
[V:5] A,8 | 
[V:6] z8 | 
[V:1] c2=BA=B4 | 
[V:2] z8 | 
[V:3] g8 | 
[V:4] d8 | 
[V:5] G,8 | 
[V:6] z8 | 
[V:1] c8 | 
[V:2] z8 | 
[V:3] e8 | 
[V:4] c8 | 
[V:5] A,8 | 
[V:6] z8 | 
[V:1] d4d2d2- | 
[V:2] z8 | 
[V:3] z8 | 
[V:4] d8 | 
[V:5] B,8 | 
[V:6] z8 | 
[V:1] d2cBc4 | 
[V:2] z8 | 
[V:3] c8 | 
[V:4] e8 | 
[V:5] A,8 | 
[V:6] z8 | 
[V:1] d3c/B/A3G | 
[V:2] z8 | 
[V:3] f8 | 
[V:4] d8 | 
[V:5] z8 | 
[V:6] z8 | 
[V:1] ABc4BA | 
[V:2] z8 | 
[V:3] e4c4 | 
[V:4] z8 | 
[V:5] A,4A,4 | 
[V:6] z8 | 
[V:1] B2c4B2 | 
[V:2] z8 | 
[V:3] g4z2g2- | 
[V:4] d4d4 | 
[V:5] G,8 | 
[V:6] z8 | 
[V:1] c4cBAG | 
[V:2] z8 | 
[V:3] gfededcB | 
[V:4] c8 | 
[V:5] z8 | 
[V:6] z8 | 
[V:1] AGFEF4 | 
[V:2] z8 | 
[V:3] cBAGA4 | 
[V:4] z8 | 
[V:5] F,8 | 
[V:6] z8 | 
[V:1] G8 | 
[V:2] z8 | 
[V:3] G4g4- | 
[V:4] B8 | 
[V:5] _E,8 | 
[V:6] z8 | 
[V:1] A4c4- | 
[V:2] z8 | 
[V:3] g2f2f4- | 
[V:4] A8 | 
[V:5] F,8 | 
[V:6] z8 | 
[V:1] c2B2B4- | 
[V:2] z8 | 
[V:3] f2ede4 | 
[V:4] B8 | 
[V:5] G,8 | 
[V:6] z8 | 
[V:1] B2AGA4 | 
[V:2] z8 | 
[V:3] f8 | 
[V:4] c8 | 
[V:5] F,8 | 
[V:6] z8 | 
[V:1] B2AGF2G2 | 
[V:2] z8 | 
[V:3] d6e2 | 
[V:4] B8 | 
[V:5] z8 | 
[V:6] z8 | 
[V:1] A2F2G2A2 | 
[V:2] z8 | 
[V:3] f2d2e2c2 | 
[V:4] z8 | 
[V:5] F,2F,2E,2F,2 | 
[V:6] z8 | 
[V:1] B2G2c2B2 | 
[V:2] z8 | 
[V:3] z2e2f2d2 | 
[V:4] B2B2A2B2 | 
[V:5] G,4F,2G,2 | 
[V:6] z8 | 
[V:1] G2A2B2G2 | 
[V:2] z8 | 
[V:3] e2c2g4 | 
[V:4] c4B2c2 | 
[V:5] E,2F,2G,2E,2 | 
[V:6] z8 | 
[V:1] A2GFE4 | 
[V:2] z8 | 
[V:3] c8 | 
[V:4] A2B2c2A2 | 
[V:5] F,2E,2C,4 | 
[V:6] z8 | 
[V:1] D4A4- | 
[V:2] z8 | 
[V:3] f6ed | 
[V:4] B2A2F4 | 
[V:5] D,8 | 
[V:6] z8 | 
[V:1] A2G2G4- | 
[V:2] z8 | 
[V:3] c2d4c2 | 
[V:4] G8 | 
[V:5] E,8 | 
[V:6] z8 | 
[V:1] G2FEFEDC | 
[V:2] z8 | 
[V:3] d8 | 
[V:4] A8 | 
[V:5] D,8 | 
[V:6] z8 | 
[V:1] B,2B4G2 | 
[V:2] z8 | 
[V:3] z2d4e2 | 
[V:4] G8 | 
[V:5] z8 | 
[V:6] z8 | 
[V:1] A2F2G2A2 | 
[V:2] z8 | 
[V:3] f2d2e2c2 | 
[V:4] z8 | 
[V:5] F,2F,2E,2F,2 | 
[V:6] z8 | 
[V:1] B2G2c2B2 | 
[V:2] z8 | 
[V:3] z2e2f2d2 | 
[V:4] B2B2A2B2 | 
[V:5] G,4F,2G,2 | 
[V:6] z8 | 
[V:1] G2A2B2G2 | 
[V:2] z8 | 
[V:3] e2c2g4 | 
[V:4] c4B2c2 | 
[V:5] E,2F,2G,2E,2 | 
[V:6] z8 | 
[V:1] A2GFE4 | 
[V:2] z8 | 
[V:3] c8 | 
[V:4] A2B2c2A2 | 
[V:5] F,2E,2C,4 | 
[V:6] z8 | 
[V:1] D4A4- | 
[V:2] z8 | 
[V:3] f6ed | 
[V:4] B2A2F4 | 
[V:5] D,8 | 
[V:6] z8 | 
[V:1] A2G2G4- | 
[V:2] z8 | 
[V:3] c2d4c2 | 
[V:4] G8 | 
[V:5] _E,8 | 
[V:6] z8 | 
[V:1] G2^FEF4 | 
[V:2] z8 | 
[V:3] d8- | 
[V:4] A8 | 
[V:5] D,8 | 
[V:6] z8 | 
[V:1] G8 ||  
[V:2] z8 ||  
[V:3] d8 ||  
[V:4] G8 ||  
[V:5] G,,8 ||  
[V:6] z8 ||  
[V:1]  [K:F] [K:clef=treble][M:2/1]G3ABcd2- | 
[V:2]  [K:F] [K:clef=treble][M:2/1]G8 | 
[V:3]  [K:F] [K:clef=treble-8][M:2/1]z8 | 
[V:4]  [K:F] [K:clef=treble-8][M:2/1]z8 | 
[V:5]  [K:F] [K:clef=bass][M:2/1]z8 | 
[V:6]  [K:F] [K:clef=bass][M:2/1]z8 | 
[V:1] d2cBA4 | 
[V:2] F8 | 
[V:3] z8 | 
[V:4] z8 | 
[V:5] z8 | 
[V:6] z8 | 
[V:1] G4z2G2 | 
[V:2] G8 | 
[V:3] G3ABcd2- | 
[V:4] z8 | 
[V:5] z8 | 
[V:6] G,,8 | 
[V:1] A2B2c2A2 | 
[V:2] z8 | 
[V:3] d2cBA4 | 
[V:4] z8 | 
[V:5] z8 | 
[V:6] F,,8 | 
[V:1] BAGFG2D2 | 
[V:2] B8 | 
[V:3] GABcd4- | 
[V:4] G8 | 
[V:5] G,,3A,,B,,C,D,2- | 
[V:6] G,,8 | 
[V:1] F2G2A4 | 
[V:2] c8 | 
[V:3] d2e2f4 | 
[V:4] F8 | 
[V:5] D,2C,B,,A,,4 | 
[V:6] z8 | 
[V:1] D8 | 
[V:2] B8 | 
[V:3] B2d4d2 | 
[V:4] G8 | 
[V:5] G,,4D,4 | 
[V:6] B,,8 | 
[V:1] G6A2 | 
[V:2] z8 | 
[V:3] c8 | 
[V:4] z8 | 
[V:5] E,8 | 
[V:6] C,8 | 
[V:1] B2AGF3G | 
[V:2] z8 | 
[V:3] d6B2 | 
[V:4] B8 | 
[V:5] D,2F,4E,D, | 
[V:6] B,,8 | 
[V:1] A2G4^F2 | 
[V:2] A8 | 
[V:3] _e6c2 | 
[V:4] c8 | 
[V:5] C,B,,A,,G,,A,,4 | 
[V:6] z8 | 
[V:1] G8 | 
[V:2] B8 | 
[V:3] d6_e2- | 
[V:4] B8 | 
[V:5] G,,2G,3F,_E,D, | 
[V:6] z8 | 
[V:1] A8 | 
[V:2] c8 | 
[V:3] edcBc4 | 
[V:4] z8 | 
[V:5] C,2D,2_E,4 | 
[V:6] A,,8 | 
[V:1] F4F2ED | 
[V:2] B8 | 
[V:3] d8 | 
[V:4] z8 | 
[V:5] D,8 | 
[V:6] B,,8 | 
[V:1] E4F4 | 
[V:2] A8 | 
[V:3] c8 | 
[V:4] A8 | 
[V:5] A,,4F,,4 | 
[V:6] C,8 | 
[V:1] D4z4 | 
[V:2] G4G4 | 
[V:3] z8 | 
[V:4] B8 | 
[V:5] G,,4G,4- | 
[V:6] B,,8 | 
[V:1] A8 | 
[V:2] z8 | 
[V:3] z8 | 
[V:4] c8 | 
[V:5] G,2^F,E,F,4 | 
[V:6] A,,8 | 
[V:1] B6AG | 
[V:2] z8 | 
[V:3] d6d2 | 
[V:4] B8 | 
[V:5] G,6F,E, | 
[V:6] G,,4G,,4 | 
[V:1] A2G4F2 | 
[V:2] z8 | 
[V:3] c2_e2d4- | 
[V:4] A8 | 
[V:5] F,2C,2D,4 | 
[V:6] z8 | 
[V:1] G4D4 | 
[V:2] B4B4 | 
[V:3] d2B4AG | 
[V:4] G4G4 | 
[V:5] G,,4B,,4 | 
[V:6] z8 | 
[V:1] C2_E2D4 | 
[V:2] A8 | 
[V:3] A2G4^F2 | 
[V:4] z8 | 
[V:5] C,4D,4 | 
[V:6] z8 | 
[V:1] D8 | 
[V:2] G8 | 
[V:3] G8 | 
[V:4] z8 | 
[V:5] z2B,4A,G, | 
[V:6] B,,4B,,4 | 
[V:1] z8 | 
[V:2] z8 | 
[V:3] z4c4 | 
[V:4] z8 | 
[V:5] A,2G,4F,2 | 
[V:6] A,,8 | 
[V:1] z2B4AG | 
[V:2] B8 | 
[V:3] B2GABcd2 | 
[V:4] B4B4 | 
[V:5] G,2F,E,D,4 | 
[V:6] G,,8 | 
[V:1] A2G3^FFE | 
[V:2] c8 | 
[V:3] _e3dc2A2 | 
[V:4] A8 | 
[V:5] C,8 | 
[V:6] z8 | 
[V:1] G8- | 
[V:2] d8 | 
[V:3] B2c2d4 | 
[V:4] G8 | 
[V:5] G,,8 | 
[V:6] B,,8 | 
[V:1] G8 | 
[V:2] _e8 | 
[V:3] c2BAG3A | 
[V:4] z8 | 
[V:5] z4C,4 | 
[V:6] C,8 | 
[V:1] z2D3EFG | 
[V:2] d8 | 
[V:3] B2c2d4 | 
[V:4] B8 | 
[V:5] B,,8 | 
[V:6] D,8 | 
[V:1] A8 | 
[V:2] z8 | 
[V:3] z4A4 | 
[V:4] c8 | 
[V:5] A,,8 | 
[V:6] E,8 | 
[V:1] z2D3EFG | 
[V:2] d4d4 | 
[V:3] F4B4 | 
[V:4] d8 | 
[V:5] B,,8 | 
[V:6] D,8 | 
[V:1] A4G4 | 
[V:2] c8 | 
[V:3] c8 | 
[V:4] e8 | 
[V:5] A,,3B,,C,4 | 
[V:6] z8 | 
[V:1] G8 | 
[V:2] z8 | 
[V:3] dcBABAGF | 
[V:4] d8 | 
[V:5] G,,8 | 
[V:6] D,4D,4 | 
[V:1] z8 | 
[V:2] A8 | 
[V:3] EDG4^F2 | 
[V:4] z8 | 
[V:5] A,,8 | 
[V:6] C,8 | 
[V:1] z2B4AG | 
[V:2] B8 | 
[V:3] G8 | 
[V:4] d4d4 | 
[V:5] G,,8 | 
[V:6] z8 | 
[V:1] F2G4^F2 | 
[V:2] c8 | 
[V:3] A8 | 
[V:4] c8 | 
[V:5] z8 | 
[V:6] A,,8 | 
[V:1] G8 | 
[V:2] B8 | 
[V:3] z2B4AG | 
[V:4] z8 | 
[V:5] G,,8 | 
[V:6] B,,8 | 
[V:1] z8 | 
[V:2] z8 | 
[V:3] F2G4^F2 | 
[V:4] A8 | 
[V:5] A,,8 | 
[V:6] C,8 | 
[V:1] z2B4AG | 
[V:2] B4B4 | 
[V:3] G8 | 
[V:4] B8 | 
[V:5] G,,8 | 
[V:6] B,,8 | 
[V:1] F2G4^F2 | 
[V:2] A8 | 
[V:3] A8 | 
[V:4] c8 | 
[V:5] z8 | 
[V:6] z8 | 
[V:1] G8 | 
[V:2] B8 | 
[V:3] G8 | 
[V:4] B8 | 
[V:5] z2B,4A,G, | 
[V:6] B,,4B,,4 | 
[V:1] A8 | 
[V:2] c8 | 
[V:3] z8 | 
[V:4] z8 | 
[V:5] F,2G,4^F,2 | 
[V:6] A,,8 | 
[V:1] D8 | 
[V:2] B4G4 | 
[V:3] d6e2 | 
[V:4] B4B4 | 
[V:5] G,4G,,4 | 
[V:6] B,,8 | 
[V:1] z8 | 
[V:2] A8 | 
[V:3] f4f3e | 
[V:4] A8 | 
[V:5] F,,8 | 
[V:6] C,8 | 
[V:1] z8 | 
[V:2] G8 | 
[V:3] dcB4AG | 
[V:4] B8 | 
[V:5] G,,4D,4- | 
[V:6] B,,4G,,4 | 
[V:1] A8 | 
[V:2] z8 | 
[V:3] F2G4^F2 | 
[V:4] c8 | 
[V:5] D,2C,B,,C,4 | 
[V:6] A,,8 | 
[V:1] B6AG | 
[V:2] z8 | 
[V:3] G2B4c2 | 
[V:4] B4G4 | 
[V:5] D,4_E,4 | 
[V:6] G,,8 | 
[V:1] F2G4^F2 | 
[V:2] z8 | 
[V:3] d8 | 
[V:4] A8 | 
[V:5] D,8 | 
[V:6] z8 | 
[V:1] G8 |]  
[V:2] G8 |]  
[V:3] d8 |]  
[V:4] G8 |]  
[V:5] G,,8 |]  
[V:6] G,,8 |]  



